; generated by PrusaSlicer 2.2.0+win64 on 2025-01-05 at 03:47:44 UTC

; 

; external perimeters extrusion width = 0.45mm
; perimeters extrusion width = 0.45mm
; infill extrusion width = 0.45mm
; solid infill extrusion width = 0.45mm
; top infill extrusion width = 0.40mm
; first layer extrusion width = 0.42mm

M201 X500 Y500 Z100 E5000 ; sets maximum accelerations, mm/sec^2
M203 X500 Y500 Z10 E60 ; sets maximum feedrates, mm/sec
M204 P500 R1000 T500 ; sets acceleration (P, T) and retract acceleration (R), mm/sec^2
M205 X8.00 Y8.00 Z0.40 E5.00 ; sets the jerk limits, mm/sec
M205 S0 T0 ; sets the minimum extruding and travel feed rate, mm/sec
M107
G90 ; use absolute coordinates
M83 ; extruder relative mode
M104 S215 ; set extruder temp
M140 S40 ; set bed temp
M190 S40 ; wait for bed temp
M109 S215 ; wait for extruder temp
G28 ; home all
G1 Z2 F240
G1 X2 Y10 F3000
G1 Z0.28 F240
G92 E0.0
G1 Y190 E15.0 F1500.0 ; intro line
G1 X2.3 F5000
G1 Y10 E30 F1200.0 ; intro line
G92 E0.0
G21 ; set units to millimeters
G90 ; use absolute coordinates
M83 ; use relative distances for extrusion
; Filament gcode
;BEFORE_LAYER_CHANGE
;0.2


G1 E-5.00000 F3600.00000
G1 Z0.200 F9000.000
;AFTER_LAYER_CHANGE
;0.2
G1 X50.335 Y49.586
G1 E5.00000 F2400.00000
G1 F1200.000
G1 X51.290 Y48.617 E0.04267
G1 X55.123 Y45.170 E0.16163
G1 X59.041 Y42.046 E0.15713
G1 X63.196 Y39.121 E0.15932
G1 X67.516 Y36.452 E0.15920
G1 X71.929 Y34.076 E0.15717
G1 X76.669 Y31.880 E0.16377
G1 X81.334 Y30.050 E0.15713
G1 X86.167 Y28.480 E0.15932
G1 X91.081 Y27.203 E0.15920
G1 X95.999 Y26.233 E0.15717
G1 X101.175 Y25.532 E0.16377
G1 X106.173 Y25.158 E0.15713
G1 X111.219 Y25.082 E0.15824
G1 X116.399 Y25.317 E0.16258
G1 X121.383 Y25.842 E0.15713
G1 X126.395 Y26.674 E0.15932
G1 X131.346 Y27.804 E0.15920
G1 X136.157 Y29.209 E0.15717
G1 X141.075 Y30.971 E0.16377
G1 X145.682 Y32.941 E0.15713
G1 X150.227 Y35.214 E0.15932
G1 X154.624 Y37.753 E0.15920
G1 X158.808 Y40.513 E0.15717
G1 X162.988 Y43.647 E0.16377
G1 X166.810 Y46.888 E0.15713
G1 X170.482 Y50.399 E0.15932
G1 X173.939 Y54.124 E0.15932
G1 X177.121 Y57.992 E0.15705
G1 X180.191 Y62.218 E0.16377
G1 X182.888 Y66.442 E0.15713
G1 X185.362 Y70.880 E0.15932
G1 X187.567 Y75.458 E0.15932
G1 X189.467 Y80.093 E0.15705
G1 X191.155 Y85.036 E0.16377
G1 X192.488 Y89.867 E0.15713
G1 X193.543 Y94.833 E0.15920
G1 X194.309 Y99.931 E0.16163
G1 X194.757 Y104.922 E0.15713
G1 X194.909 Y110.001 E0.15932
G1 X194.757 Y115.076 E0.15920
G1 X194.309 Y120.069 E0.15717
G1 X193.530 Y125.234 E0.16377
G1 X192.487 Y130.136 E0.15713
G1 X191.135 Y135.034 E0.15932
G1 X189.493 Y139.842 E0.15932
G1 X187.594 Y144.478 E0.15705
G1 X185.328 Y149.184 E0.16377
G1 X182.886 Y153.560 E0.15713
G1 X180.153 Y157.839 E0.15920
G1 X177.121 Y162.008 E0.16163
G1 X173.937 Y165.878 E0.15713
G1 X170.481 Y169.603 E0.15932
G1 X166.811 Y173.111 E0.15920
G1 X162.988 Y176.353 E0.15717
G1 X158.808 Y179.487 E0.16377
G1 X154.625 Y182.246 E0.15713
G1 X150.225 Y184.787 E0.15932
G1 X145.684 Y187.058 E0.15920
G1 X141.075 Y189.029 E0.15717
G1 X136.157 Y190.791 E0.16377
G1 X131.347 Y192.196 E0.15713
G1 X126.393 Y193.326 E0.15932
G1 X121.380 Y194.159 E0.15932
G1 X116.399 Y194.683 E0.15705
G1 X111.216 Y194.918 E0.16266
G1 X106.170 Y194.842 E0.15825
G1 X101.171 Y194.468 E0.15717
G1 X95.999 Y193.767 E0.16366
G1 X91.082 Y192.798 E0.15713
G1 X86.164 Y191.519 E0.15932
G1 X81.332 Y189.949 E0.15932
G1 X76.669 Y188.120 E0.15705
G1 X71.929 Y185.924 E0.16377
G1 X67.517 Y183.548 E0.15713
G1 X63.194 Y180.877 E0.15932
G1 X59.039 Y177.952 E0.15932
G1 X55.123 Y174.830 E0.15705
G1 X51.241 Y171.335 E0.16377
G1 X47.725 Y167.764 E0.15713
G1 X44.382 Y163.938 E0.15932
G1 X41.273 Y159.918 E0.15932
G1 X38.451 Y155.780 E0.15705
G1 X35.772 Y151.296 E0.16377
G1 X33.464 Y146.847 E0.15713
G1 X31.398 Y142.205 E0.15932
G1 X29.614 Y137.452 E0.15920
G1 X28.135 Y132.662 E0.15717
G1 X26.897 Y127.588 E0.16377
G1 X26.003 Y122.656 E0.15713
G1 X25.396 Y117.612 E0.15932
G1 X25.093 Y112.543 E0.15920
G1 X25.091 Y107.530 E0.15717
G1 X25.404 Y102.316 E0.16377
G1 X26.003 Y97.341 E0.15713
G1 X26.911 Y92.341 E0.15932
G1 X28.115 Y87.405 E0.15932
G1 X29.591 Y82.618 E0.15705
G1 X31.426 Y77.728 E0.16377
G1 X33.465 Y73.150 E0.15713
G1 X35.806 Y68.640 E0.15932
G1 X38.410 Y64.282 E0.15920
G1 X41.233 Y60.139 E0.15717
G1 X44.428 Y56.007 E0.16377
G1 X47.726 Y52.234 E0.15713
G1 X50.292 Y49.629 E0.11465
G1 E-3.50000 F3600.00000
G1 F7200.000
G1 X51.290 Y48.617 E-0.67497
G1 X52.464 Y47.561 E-0.75003
G1 E-0.07500 F3600.00000
G1 X82.358 Y82.377 F9000.000
G1 E5.00000 F2400.00000
G1 F1200.000
G1 X84.871 Y80.074 E0.10686
G1 X87.575 Y78.000 E0.10686
G1 X90.449 Y76.169 E0.10686
G1 X93.472 Y74.595 E0.10686
G1 X96.620 Y73.291 E0.10686
G1 X99.871 Y72.266 E0.10686
G1 X103.198 Y71.528 E0.10686
G1 X106.577 Y71.084 E0.10686
G1 X109.840 Y70.941 E0.10243
G1 X113.385 Y71.083 E0.11122
G1 X116.765 Y71.528 E0.10691
G1 X120.092 Y72.266 E0.10686
G1 X123.343 Y73.291 E0.10686
G1 X126.491 Y74.595 E0.10686
G1 X129.514 Y76.169 E0.10686
G1 X132.388 Y78.000 E0.10686
G1 X135.092 Y80.074 E0.10686
G1 X137.605 Y82.377 E0.10686
G1 X139.907 Y84.889 E0.10686
G1 X141.982 Y87.593 E0.10686
G1 X143.813 Y90.467 E0.10686
G1 X145.387 Y93.490 E0.10686
G1 X146.691 Y96.639 E0.10685
G1 X147.715 Y99.889 E0.10686
G1 X148.453 Y103.216 E0.10686
G1 X148.880 Y106.455 E0.10243
G1 X149.047 Y109.998 E0.11122
G1 X148.898 Y113.405 E0.10691
G1 X148.453 Y116.784 E0.10686
G1 X147.715 Y120.111 E0.10686
G1 X146.691 Y123.361 E0.10686
G1 X145.441 Y126.379 E0.10243
G1 X143.814 Y129.531 E0.11122
G1 X141.982 Y132.407 E0.10691
G1 X139.907 Y135.111 E0.10686
G1 X137.605 Y137.623 E0.10686
G1 X135.092 Y139.926 E0.10686
G1 X132.388 Y142.000 E0.10686
G1 X129.514 Y143.831 E0.10686
G1 X126.491 Y145.405 E0.10686
G1 X123.343 Y146.709 E0.10686
G1 X120.092 Y147.734 E0.10686
G1 X116.765 Y148.472 E0.10686
G1 X113.386 Y148.916 E0.10686
G1 X109.982 Y149.065 E0.10686
G1 X106.577 Y148.916 E0.10686
G1 X103.198 Y148.472 E0.10686
G1 X99.871 Y147.734 E0.10686
G1 X96.620 Y146.709 E0.10686
G1 X93.602 Y145.459 E0.10243
G1 X90.450 Y143.832 E0.11122
G1 X87.575 Y142.000 E0.10691
G1 X84.871 Y139.926 E0.10686
G1 X82.358 Y137.623 E0.10686
G1 X80.056 Y135.111 E0.10686
G1 X77.981 Y132.407 E0.10686
G1 X76.226 Y129.652 E0.10243
G1 X74.577 Y126.511 E0.11122
G1 X73.272 Y123.361 E0.10691
G1 X72.248 Y120.111 E0.10686
G1 X71.510 Y116.784 E0.10686
G1 X71.065 Y113.405 E0.10686
G1 X70.916 Y110.000 E0.10686
G1 X71.065 Y106.595 E0.10686
G1 X71.510 Y103.216 E0.10686
G1 X72.248 Y99.889 E0.10686
G1 X73.272 Y96.639 E0.10686
G1 X74.577 Y93.490 E0.10686
G1 X76.150 Y90.467 E0.10686
G1 X77.981 Y87.593 E0.10686
G1 X80.056 Y84.889 E0.10686
G1 X82.318 Y82.421 E0.10497
G1 X82.596 Y82.676 F9000.000
G1 F1200.000
G1 X85.114 Y80.364 E0.10718
G1 X87.791 Y78.309 E0.10582
G1 X90.638 Y76.496 E0.10582
G1 X93.631 Y74.937 E0.10582
G1 X96.750 Y73.646 E0.10582
G1 X99.968 Y72.631 E0.10582
G1 X103.263 Y71.900 E0.10582
G1 X106.610 Y71.460 E0.10582
G1 X109.841 Y71.318 E0.10141
G1 X113.352 Y71.459 E0.11018
G1 X116.700 Y71.900 E0.10586
G1 X119.995 Y72.631 E0.10582
G1 X123.213 Y73.646 E0.10582
G1 X126.332 Y74.937 E0.10582
G1 X129.325 Y76.496 E0.10582
G1 X132.172 Y78.309 E0.10582
G1 X134.849 Y80.364 E0.10582
G1 X137.338 Y82.644 E0.10582
G1 X139.618 Y85.132 E0.10582
G1 X141.673 Y87.810 E0.10582
G1 X143.486 Y90.656 E0.10582
G1 X145.044 Y93.650 E0.10582
G1 X146.336 Y96.768 E0.10582
G1 X147.351 Y99.987 E0.10582
G1 X148.081 Y103.282 E0.10582
G1 X148.504 Y106.489 E0.10141
G1 X148.669 Y109.999 E0.11018
G1 X148.522 Y113.372 E0.10586
G1 X148.081 Y116.718 E0.10582
G1 X147.351 Y120.013 E0.10582
G1 X146.336 Y123.232 E0.10582
G1 X145.098 Y126.220 E0.10141
G1 X143.487 Y129.343 E0.11018
G1 X141.673 Y132.190 E0.10586
G1 X139.618 Y134.868 E0.10582
G1 X137.338 Y137.356 E0.10582
G1 X134.849 Y139.636 E0.10582
G1 X132.172 Y141.691 E0.10582
G1 X129.325 Y143.504 E0.10582
G1 X126.332 Y145.063 E0.10582
G1 X123.213 Y146.354 E0.10582
G1 X119.995 Y147.369 E0.10582
G1 X116.700 Y148.100 E0.10582
G1 X113.353 Y148.540 E0.10582
G1 X109.982 Y148.688 E0.10582
G1 X106.610 Y148.540 E0.10582
G1 X103.263 Y148.100 E0.10582
G1 X99.968 Y147.369 E0.10582
G1 X96.750 Y146.354 E0.10582
G1 X93.761 Y145.117 E0.10141
G1 X90.639 Y143.505 E0.11018
G1 X87.791 Y141.691 E0.10586
G1 X85.114 Y139.636 E0.10582
G1 X82.625 Y137.356 E0.10582
G1 X80.345 Y134.868 E0.10582
G1 X78.290 Y132.190 E0.10582
G1 X76.553 Y129.462 E0.10141
G1 X74.919 Y126.351 E0.11018
G1 X73.627 Y123.232 E0.10586
G1 X72.612 Y120.013 E0.10582
G1 X71.882 Y116.718 E0.10582
G1 X71.441 Y113.372 E0.10582
G1 X71.294 Y110.000 E0.10582
G1 X71.441 Y106.628 E0.10582
G1 X71.882 Y103.282 E0.10582
G1 X72.612 Y99.987 E0.10582
G1 X73.627 Y96.768 E0.10582
G1 X74.919 Y93.650 E0.10582
G1 X76.477 Y90.656 E0.10582
G1 X78.290 Y87.810 E0.10582
G1 X80.345 Y85.132 E0.10582
G1 X82.555 Y82.720 E0.10258
G1 X82.833 Y82.975 F9000.000
G1 F1200.000
G1 X85.356 Y80.653 E0.10751
G1 X88.008 Y78.618 E0.10479
G1 X90.826 Y76.822 E0.10479
G1 X93.791 Y75.279 E0.10479
G1 X96.879 Y74.000 E0.10479
G1 X100.066 Y72.995 E0.10479
G1 X103.329 Y72.272 E0.10479
G1 X106.643 Y71.836 E0.10479
G1 X109.842 Y71.696 E0.10040
G1 X113.320 Y71.836 E0.10915
G1 X116.634 Y72.272 E0.10480
G1 X119.897 Y72.995 E0.10479
G1 X123.084 Y74.000 E0.10479
G1 X126.172 Y75.279 E0.10479
G1 X129.137 Y76.822 E0.10479
G1 X131.955 Y78.618 E0.10479
G1 X134.607 Y80.653 E0.10479
G1 X137.071 Y82.911 E0.10479
G1 X139.329 Y85.375 E0.10479
G1 X141.363 Y88.026 E0.10479
G1 X143.159 Y90.845 E0.10479
G1 X144.702 Y93.809 E0.10479
G1 X145.981 Y96.897 E0.10479
G1 X146.986 Y100.085 E0.10479
G1 X147.710 Y103.348 E0.10479
G1 X148.128 Y106.522 E0.10040
G1 X148.292 Y110.000 E0.10915
G1 X148.146 Y113.339 E0.10480
G1 X147.710 Y116.652 E0.10479
G1 X146.986 Y119.915 E0.10479
G1 X145.981 Y123.103 E0.10479
G1 X144.756 Y126.061 E0.10040
G1 X143.159 Y129.155 E0.10915
G1 X141.363 Y131.974 E0.10480
G1 X139.329 Y134.625 E0.10479
G1 X137.071 Y137.089 E0.10479
G1 X134.607 Y139.347 E0.10479
G1 X131.955 Y141.382 E0.10479
G1 X129.137 Y143.178 E0.10479
G1 X126.172 Y144.721 E0.10479
G1 X123.084 Y146.000 E0.10479
G1 X119.897 Y147.005 E0.10479
G1 X116.634 Y147.728 E0.10479
G1 X113.320 Y148.164 E0.10479
G1 X109.982 Y148.310 E0.10479
G1 X106.643 Y148.164 E0.10479
G1 X103.329 Y147.728 E0.10479
G1 X100.066 Y147.005 E0.10479
G1 X96.879 Y146.000 E0.10479
G1 X93.920 Y144.774 E0.10040
G1 X90.827 Y143.178 E0.10915
G1 X88.008 Y141.382 E0.10480
G1 X85.356 Y139.347 E0.10479
G1 X82.892 Y137.089 E0.10479
G1 X80.634 Y134.625 E0.10479
G1 X78.600 Y131.974 E0.10479
G1 X76.879 Y129.273 E0.10040
G1 X75.261 Y126.191 E0.10915
G1 X73.982 Y123.103 E0.10480
G1 X72.977 Y119.915 E0.10479
G1 X72.253 Y116.652 E0.10479
G1 X71.817 Y113.339 E0.10479
G1 X71.671 Y110.000 E0.10479
G1 X71.817 Y106.661 E0.10479
G1 X72.253 Y103.348 E0.10479
G1 X72.977 Y100.085 E0.10479
G1 X73.982 Y96.897 E0.10479
G1 X75.261 Y93.809 E0.10479
G1 X76.804 Y90.845 E0.10479
G1 X78.600 Y88.026 E0.10479
G1 X80.634 Y85.375 E0.10479
G1 X82.793 Y83.019 E0.10018
G1 X82.729 Y82.589 F9000.000
G1 E-3.50000 F3600.00000
G1 F7200.000
G1 X84.997 Y80.984 E-1.42500
G1 E-0.07500 F3600.00000
G1 X51.917 Y52.748 F9000.000
G1 E5.00000 F2400.00000
G1 F1200.000
G1 X53.602 Y51.030 E0.07545
G1 X57.228 Y47.764 E0.15301
G1 X60.884 Y44.849 E0.14658
G1 X65.037 Y41.910 E0.15954
G1 X69.189 Y39.345 E0.15301
G1 X73.487 Y37.032 E0.15305
G1 X77.916 Y34.980 E0.15305
G1 X82.460 Y33.197 E0.15305
G1 X87.103 Y31.688 E0.15305
G1 X91.827 Y30.460 E0.15305
G1 X96.616 Y29.517 E0.15305
G1 X101.454 Y28.862 E0.15305
G1 X106.321 Y28.497 E0.15305
G1 X111.202 Y28.424 E0.15305
G1 X115.872 Y28.633 E0.14658
G1 X120.934 Y29.153 E0.15954
G1 X125.748 Y29.953 E0.15301
G1 X130.507 Y31.039 E0.15305
G1 X135.193 Y32.408 E0.15305
G1 X139.788 Y34.054 E0.15305
G1 X144.277 Y35.973 E0.15305
G1 X148.642 Y38.156 E0.15305
G1 X152.870 Y40.597 E0.15305
G1 X156.943 Y43.286 E0.15305
G1 X160.849 Y46.214 E0.15305
G1 X164.573 Y49.370 E0.15305
G1 X168.101 Y52.744 E0.15305
G1 X171.421 Y56.322 E0.15305
G1 X174.521 Y60.092 E0.15305
G1 X177.391 Y64.041 E0.15305
G1 X180.018 Y68.155 E0.15305
G1 X182.396 Y72.418 E0.15305
G1 X184.513 Y76.816 E0.15305
G1 X186.365 Y81.333 E0.15305
G1 X187.942 Y85.952 E0.15305
G1 X189.241 Y90.658 E0.15305
G1 X190.256 Y95.432 E0.15305
G1 X190.983 Y100.259 E0.15305
G1 X191.421 Y105.121 E0.15305
G1 X191.567 Y110.000 E0.15305
G1 X191.421 Y114.879 E0.15305
G1 X190.983 Y119.741 E0.15305
G1 X190.287 Y124.364 E0.14658
G1 X189.241 Y129.343 E0.15954
G1 X187.942 Y134.048 E0.15301
G1 X186.365 Y138.667 E0.15305
G1 X184.513 Y143.184 E0.15305
G1 X182.396 Y147.582 E0.15305
G1 X180.018 Y151.845 E0.15305
G1 X177.391 Y155.959 E0.15305
G1 X174.521 Y159.908 E0.15305
G1 X171.421 Y163.678 E0.15305
G1 X168.101 Y167.256 E0.15305
G1 X164.573 Y170.630 E0.15305
G1 X160.849 Y173.786 E0.15305
G1 X157.109 Y176.590 E0.14658
G1 X152.869 Y179.404 E0.15954
G1 X148.642 Y181.844 E0.15301
G1 X144.277 Y184.027 E0.15305
G1 X139.788 Y185.946 E0.15305
G1 X135.193 Y187.592 E0.15305
G1 X130.507 Y188.961 E0.15305
G1 X125.748 Y190.047 E0.15305
G1 X121.136 Y190.813 E0.14658
G1 X116.077 Y191.357 E0.15954
G1 X111.202 Y191.576 E0.15301
G1 X106.321 Y191.503 E0.15305
G1 X101.454 Y191.138 E0.15305
G1 X96.616 Y190.483 E0.15305
G1 X91.827 Y189.540 E0.15305
G1 X87.103 Y188.312 E0.15305
G1 X82.460 Y186.803 E0.15305
G1 X77.916 Y185.020 E0.15305
G1 X73.487 Y182.968 E0.15305
G1 X69.189 Y180.655 E0.15305
G1 X65.036 Y178.089 E0.15305
G1 X61.045 Y175.279 E0.15305
G1 X57.228 Y172.236 E0.15305
G1 X53.601 Y168.970 E0.15305
G1 X50.175 Y165.492 E0.15305
G1 X46.964 Y161.816 E0.15305
G1 X43.978 Y157.955 E0.15305
G1 X41.228 Y153.922 E0.15305
G1 X38.724 Y149.731 E0.15305
G1 X36.476 Y145.399 E0.15305
G1 X34.490 Y140.939 E0.15305
G1 X32.775 Y136.369 E0.15305
G1 X31.336 Y131.705 E0.15305
G1 X30.179 Y126.963 E0.15305
G1 X29.307 Y122.160 E0.15305
G1 X28.725 Y117.313 E0.15305
G1 X28.433 Y112.441 E0.15305
G1 X28.433 Y107.559 E0.15305
G1 X28.725 Y102.687 E0.15305
G1 X29.283 Y98.045 E0.14658
G1 X30.179 Y93.036 E0.15954
G1 X31.336 Y88.295 E0.15301
G1 X32.775 Y83.631 E0.15305
G1 X34.490 Y79.061 E0.15305
G1 X36.476 Y74.601 E0.15305
G1 X38.724 Y70.269 E0.15305
G1 X41.228 Y66.078 E0.15305
G1 X43.978 Y62.045 E0.15305
G1 X46.964 Y58.184 E0.15305
G1 X50.039 Y54.663 E0.14658
G1 X51.875 Y52.791 E0.08221
G1 X51.606 Y52.527 F9000.000
G1 F1200.000
G1 X53.341 Y50.757 E0.07770
G1 X56.985 Y47.476 E0.15374
G1 X60.657 Y44.548 E0.14728
G1 X64.829 Y41.596 E0.16025
G1 X69.000 Y39.018 E0.15374
G1 X73.319 Y36.694 E0.15376
G1 X77.768 Y34.633 E0.15376
G1 X82.333 Y32.841 E0.15376
G1 X86.997 Y31.326 E0.15376
G1 X91.743 Y30.092 E0.15376
G1 X96.555 Y29.145 E0.15376
G1 X101.414 Y28.486 E0.15376
G1 X106.304 Y28.120 E0.15376
G1 X111.208 Y28.047 E0.15376
G1 X115.900 Y28.257 E0.14728
G1 X120.984 Y28.779 E0.16025
G1 X125.821 Y29.582 E0.15374
G1 X130.602 Y30.674 E0.15376
G1 X135.309 Y32.049 E0.15376
G1 X139.926 Y33.703 E0.15376
G1 X144.435 Y35.630 E0.15376
G1 X148.821 Y37.824 E0.15376
G1 X153.068 Y40.276 E0.15376
G1 X157.161 Y42.978 E0.15376
G1 X161.084 Y45.919 E0.15376
G1 X164.825 Y49.090 E0.15376
G1 X168.370 Y52.479 E0.15376
G1 X171.705 Y56.074 E0.15376
G1 X174.820 Y59.861 E0.15376
G1 X177.702 Y63.829 E0.15376
G1 X180.342 Y67.961 E0.15376
G1 X182.730 Y72.245 E0.15376
G1 X184.858 Y76.663 E0.15376
G1 X186.718 Y81.200 E0.15376
G1 X188.303 Y85.841 E0.15376
G1 X189.607 Y90.568 E0.15376
G1 X190.627 Y95.365 E0.15376
G1 X191.358 Y100.214 E0.15376
G1 X191.797 Y105.098 E0.15376
G1 X191.944 Y110.000 E0.15376
G1 X191.797 Y114.902 E0.15376
G1 X191.358 Y119.786 E0.15376
G1 X190.658 Y124.431 E0.14728
G1 X189.607 Y129.432 E0.16025
G1 X188.303 Y134.159 E0.15374
G1 X186.718 Y138.800 E0.15376
G1 X184.858 Y143.337 E0.15376
G1 X182.730 Y147.755 E0.15376
G1 X180.342 Y152.039 E0.15376
G1 X177.702 Y156.171 E0.15376
G1 X174.820 Y160.139 E0.15376
G1 X171.705 Y163.926 E0.15376
G1 X168.370 Y167.521 E0.15376
G1 X164.825 Y170.910 E0.15376
G1 X161.084 Y174.081 E0.15376
G1 X157.326 Y176.898 E0.14728
G1 X153.067 Y179.724 E0.16025
G1 X148.821 Y182.176 E0.15374
G1 X144.435 Y184.370 E0.15376
G1 X139.926 Y186.297 E0.15376
